X: 1269
T: Jennie Rock the Cradle
M:C|
L:1/8
R:Reel
B:O'Neill's 1269
N:Collected by F. O'Neill
Z:Transcribed by Trish O'Neil
K:D
(3ABc|dAFA DAFA|dAFGA2(3ABc|dAFA DAFA|GFEFG2(3ABc|
dAFA DAFA|dAFAA2(3ABc|dBcA BGAF|GFEFG2||
(AG)|DFAc BGAF|DFABA2(AF)|DFAc BGAF|GFEFG2(FE)|
DFAc BGAF|DFABA2(3ABc|dBcA BGAF|GFEFG2||
(AG)|(3FED (AD) BDAD|(3FED (AD)A2AG|(3FED (AD) BDAD|GFEFG2(AG)|
(3FED (AD) BDAD|(3FED (AD)A2(3ABc|dBcA BGAF|GFEFG2||


